X: 18957
T: Inis Bearachain, The
R: jig
M: 6/8
K: Amajor
|:ABc ecB|A2A BAF|~E2E Ace|efa baf|
efa fec|B2B cAF|~E3 ecA|1 BcB A3:|2 BcB Aaf||
|:ecB Ace|~f3 fec|~B3 Bce|~f2e fga|
fec ecB|A2A BAF|~E3 ecA|1 BcB Aaf:|2 BcB A3||

